Sweet-Rainbow/icons/diodon.svg

<?xml version="1.0" encoding="UTF-8" standalone="no"?>
<!-- Generator: Gravit.io -->

<svg
   xmlns:dc="http://purl.org/dc/elements/1.1/"
   xmlns:cc="http://creativecommons.org/ns#"
   xmlns:rdf="http://www.w3.org/1999/02/22-rdf-syntax-ns#"
   xmlns:svg="http://www.w3.org/2000/svg"
   xmlns="http://www.w3.org/2000/svg"
   xmlns:sodipodi="http://sodipodi.sourceforge.net/DTD/sodipodi-0.dtd"
   xmlns:inkscape="http://www.inkscape.org/namespaces/inkscape"
   style="isolation:isolate"
   viewBox="0 0 36 36"
   width="48"
   height="48"
   version="1.1"
   id="svg9"
   sodipodi:docname="diodon.svg"
   inkscape:version="0.92.4 (5da689c313, 2019-01-14)">
  <metadata
     id="metadata15">
    <rdf:RDF>
      <cc:Work
         rdf:about="">
        <dc:format>image/svg+xml</dc:format>
        <dc:type
           rdf:resource="http://purl.org/dc/dcmitype/StillImage" />
        <dc:title></dc:title>
      </cc:Work>
    </rdf:RDF>
  </metadata>
  <defs
     id="defs13" />
  <sodipodi:namedview
     pagecolor="#ffffff"
     bordercolor="#666666"
     borderopacity="1"
     objecttolerance="10"
     gridtolerance="10"
     guidetolerance="10"
     inkscape:pageopacity="0"
     inkscape:pageshadow="2"
     inkscape:window-width="640"
     inkscape:window-height="480"
     id="namedview11"
     showgrid="false"
     inkscape:zoom="29.365243"
     inkscape:cx="25.325443"
     inkscape:cy="32"
     inkscape:current-layer="svg9"
     units="px" />
  <linearGradient
     id="_lgradient_14"
     x1="0.061897106"
     y1="0.14716151"
     x2="0.99042481"
     y2="0.98658085"
     gradientTransform="matrix(42,0,0,43,3,2.5)"
     gradientUnits="userSpaceOnUse">
    <stop
       offset="0%"
       stop-opacity="1"
       style="stop-color:rgb(22,181,228)"
       id="stop2" />
    <stop
       offset="98.26086956521739%"
       stop-opacity="1"
       style="stop-color:rgb(245,32,250)"
       id="stop4" />
  </linearGradient>
  <g
     id="g826"
     transform="matrix(0.8372093,0,0,0.8372093,-2.0930232,-2.0930232)">
    <path
       id="path7"
       d="M 22.51,11.5 H 14.42 V 9.36 h 4.23 c 0.35,0 0.69,-0.13 0.96,-0.35 0.27,-0.22 0.45,-0.53 0.52,-0.88 0.08,-0.44 0.24,-0.87 0.46,-1.26 0.14,-0.27 0.34,-0.5 0.58,-0.68 0.26,-0.21 0.56,-0.36 0.88,-0.45 0.57,-0.16 1.16,-0.24 1.75,-0.24 0.59,0 1.18,0.08 1.75,0.25 0.32,0.09 0.62,0.24 0.88,0.45 0.24,0.18 0.43,0.41 0.58,0.67 0.22,0.39 0.37,0.82 0.46,1.26 0.06,0.35 0.24,0.66 0.51,0.88 0.27,0.22 0.61,0.35 0.96,0.35 h 3.64 v 2.14 z m 15.99,0 v 0 C 37.672,11.5 37,10.828 37,10 v 0 c 0,-0.828 0.672,-1.5 1.5,-1.5 v 0 H 41 c 2.208,0 4,1.792 4,4 v 29 c 0,2.208 -1.792,4 -4,4 H 7 c -2.208,0 -4,-1.792 -4,-4 v -29 c 0,-2.208 1.792,-4 4,-4 h 1.5 v 0 C 9.328,8.5 10,9.172 10,10 v 0 c 0,0.828 -0.672,1.5 -1.5,1.5 v 0 H 8 c -1.104,0 -2,0.896 -2,2 v 27 c 0,1.104 0.896,2 2,2 h 32 c 1.104,0 2,-0.896 2,-2 v -27 c 0,-1.104 -0.896,-2 -2,-2 z M 18.5,24 v 0 c 1.104,0 2,0.896 2,2 v 0 c 0,1.104 -0.896,2 -2,2 v 0 c -1.104,0 -2,-0.896 -2,-2 v 0 c 0,-1.104 0.896,-2 2,-2 z m 6,0 h 6 c 0.552,0 1,0.448 1,1 v 2 c 0,0.552 -0.448,1 -1,1 h -6 c -0.552,0 -1,-0.448 -1,-1 v -2 c 0,-0.552 0.448,-1 1,-1 z m 0,7 h 6 c 0.552,0 1,0.448 1,1 v 2 c 0,0.552 -0.448,1 -1,1 h -6 c -0.552,0 -1,-0.448 -1,-1 v -2 c 0,-0.552 0.448,-1 1,-1 z M 22.51,14.5 h -9.09 c -1.104,0 -2,-0.896 -2,-2 V 8.36 c 0,-1.104 0.896,-2 2,-2 h 4.1 C 17.65,6.03 17.8,5.71 17.97,5.4 18.31,4.79 18.77,4.25 19.33,3.82 19.9,3.38 20.54,3.05 21.24,2.86 22.07,2.62 22.93,2.5 23.8,2.5 c 0.87,0 1.74,0.12 2.57,0.36 0.7,0.2 1.35,0.53 1.92,0.98 0.55,0.43 1,0.96 1.34,1.57 0.17,0.31 0.32,0.62 0.44,0.95 h 3.51 c 1.104,0 2,0.896 2,2 v 4.14 c 0,1.104 -0.896,2 -2,2 z m -8.01,6 h 19 v 17 h -19 z m -3,-3 h 25 v 23 h -25 z m 7,13.5 v 0 c 1.104,0 2,0.896 2,2 v 0 c 0,1.104 -0.896,2 -2,2 v 0 c -1.104,0 -2,-0.896 -2,-2 v 0 c 0,-1.104 0.896,-2 2,-2 z"
       inkscape:connector-curvature="0"
       style="fill:url(#_lgradient_14);fill-rule:evenodd" />
  </g>
</svg>

<?xml version="1.0" encoding="UTF-8" standalone="no"?><!-- Generator: Gravit.io --><svg xmlns="http://www.w3.org/2000/svg" xmlns:xlink="http://www.w3.org/1999/xlink" style="isolation:isolate" viewBox="0 0 48 48" width="48pt" height="48pt"><linearGradient id="_lgradient_14" x1="0.061897106109324806" y1="0.14716151924516707" x2="0.9904248356713994" y2="0.9865808764728623" gradientTransform="matrix(42,0,0,43,3,2.5)" gradientUnits="userSpaceOnUse"><stop offset="0%" stop-opacity="1" style="stop-color:rgb(22,181,228)"/><stop offset="98.26086956521739%" stop-opacity="1" style="stop-color:rgb(245,32,250)"/></linearGradient><path d=" M 22.51 11.5 L 14.42 11.5 L 14.42 9.36 L 18.65 9.36 C 19 9.36 19.34 9.23 19.61 9.01 C 19.88 8.79 20.06 8.48 20.13 8.13 C 20.21 7.69 20.37 7.26 20.59 6.87 C 20.73 6.6 20.93 6.37 21.17 6.19 C 21.43 5.98 21.73 5.83 22.05 5.74 C 22.62 5.58 23.21 5.5 23.8 5.5 C 24.39 5.5 24.98 5.58 25.55 5.75 C 25.87 5.84 26.17 5.99 26.43 6.2 C 26.67 6.38 26.86 6.61 27.01 6.87 C 27.23 7.26 27.38 7.69 27.47 8.13 C 27.53 8.48 27.71 8.79 27.98 9.01 C 28.25 9.23 28.59 9.36 28.94 9.36 L 32.58 9.36 L 32.58 11.5 L 22.51 11.5 L 22.51 11.5 L 22.51 11.5 L 22.51 11.5 L 22.51 11.5 L 22.51 11.5 L 22.51 11.5 Z  M 38.5 11.5 L 38.5 11.5 C 37.672 11.5 37 10.828 37 10 L 37 10 C 37 9.172 37.672 8.5 38.5 8.5 L 38.5 8.5 L 41 8.5 C 43.208 8.5 45 10.292 45 12.5 L 45 41.5 C 45 43.708 43.208 45.5 41 45.5 L 7 45.5 C 4.792 45.5 3 43.708 3 41.5 L 3 12.5 C 3 10.292 4.792 8.5 7 8.5 L 8.5 8.5 L 8.5 8.5 C 9.328 8.5 10 9.172 10 10 L 10 10 C 10 10.828 9.328 11.5 8.5 11.5 L 8.5 11.5 L 8 11.5 C 6.896 11.5 6 12.396 6 13.5 L 6 40.5 C 6 41.604 6.896 42.5 8 42.5 L 40 42.5 C 41.104 42.5 42 41.604 42 40.5 L 42 13.5 C 42 12.396 41.104 11.5 40 11.5 L 38.5 11.5 L 38.5 11.5 L 38.5 11.5 L 38.5 11.5 L 38.5 11.5 L 38.5 11.5 Z  M 18.5 24 L 18.5 24 C 19.604 24 20.5 24.896 20.5 26 L 20.5 26 C 20.5 27.104 19.604 28 18.5 28 L 18.5 28 C 17.396 28 16.5 27.104 16.5 26 L 16.5 26 C 16.5 24.896 17.396 24 18.5 24 L 18.5 24 L 18.5 24 L 18.5 24 Z  M 24.5 24 L 30.5 24 C 31.052 24 31.5 24.448 31.5 25 L 31.5 27 C 31.5 27.552 31.052 28 30.5 28 L 24.5 28 C 23.948 28 23.5 27.552 23.5 27 L 23.5 25 C 23.5 24.448 23.948 24 24.5 24 L 24.5 24 L 24.5 24 Z  M 24.5 31 L 30.5 31 C 31.052 31 31.5 31.448 31.5 32 L 31.5 34 C 31.5 34.552 31.052 35 30.5 35 L 24.5 35 C 23.948 35 23.5 34.552 23.5 34 L 23.5 32 C 23.5 31.448 23.948 31 24.5 31 L 24.5 31 Z  M 22.51 14.5 L 13.42 14.5 C 12.316 14.5 11.42 13.604 11.42 12.5 L 11.42 8.36 C 11.42 7.256 12.316 6.36 13.42 6.36 L 17.52 6.36 C 17.65 6.03 17.8 5.71 17.97 5.4 C 18.31 4.79 18.77 4.25 19.33 3.82 C 19.9 3.38 20.54 3.05 21.24 2.86 C 22.07 2.62 22.93 2.5 23.8 2.5 C 24.67 2.5 25.54 2.62 26.37 2.86 C 27.07 3.06 27.72 3.39 28.29 3.84 C 28.84 4.27 29.29 4.8 29.63 5.41 C 29.8 5.72 29.95 6.03 30.07 6.36 L 33.58 6.36 C 34.684 6.36 35.58 7.256 35.58 8.36 L 35.58 12.5 C 35.58 13.604 34.684 14.5 33.58 14.5 L 22.51 14.5 L 22.51 14.5 L 22.51 14.5 L 22.51 14.5 L 22.51 14.5 L 22.51 14.5 L 22.51 14.5 Z  M 14.5 20.5 L 33.5 20.5 L 33.5 37.5 L 14.5 37.5 L 14.5 20.5 L 14.5 20.5 L 14.5 20.5 L 14.5 20.5 L 14.5 20.5 L 14.5 20.5 Z  M 11.5 17.5 L 36.5 17.5 L 36.5 40.5 L 11.5 40.5 L 11.5 17.5 L 11.5 17.5 L 11.5 17.5 L 11.5 17.5 L 11.5 17.5 L 11.5 17.5 Z  M 18.5 31 L 18.5 31 C 19.604 31 20.5 31.896 20.5 33 L 20.5 33 C 20.5 34.104 19.604 35 18.5 35 L 18.5 35 C 17.396 35 16.5 34.104 16.5 33 L 16.5 33 C 16.5 31.896 17.396 31 18.5 31 Z " fill-rule="evenodd" fill="url(#_lgradient_14)"/></svg>
